src/icons/outline/symbols/servers.svg

<svg width="24" height="24" viewBox="0 0 24 24" fill="none" xmlns="http://www.w3.org/2000/svg">
<g clip-path="url(#clip0_4787_556)">
<path d="M5.49707 10.5C6.32519 10.5003 6.99694 11.1718 6.99707 12C6.99707 12.8283 6.32527 13.4997 5.49707 13.5C4.66864 13.5 3.99707 12.8284 3.99707 12C3.9972 11.1717 4.66872 10.5 5.49707 10.5Z" fill="#3C3B44"/>
<path d="M9.49512 10.5C10.3232 10.5003 10.995 11.1718 10.9951 12C10.9951 12.8283 10.3233 13.4997 9.49512 13.5C8.66669 13.5 7.99512 12.8284 7.99512 12C7.99525 11.1717 8.66677 10.5 9.49512 10.5Z" fill="#3C3B44"/>
<path d="M5.49707 3.76172C6.32527 3.76198 6.99707 4.43345 6.99707 5.26172C6.99681 6.08976 6.32511 6.76146 5.49707 6.76172C4.66881 6.76172 3.99733 6.08992 3.99707 5.26172C3.99707 4.43329 4.66864 3.76172 5.49707 3.76172Z" fill="#3C3B44"/>
<path d="M9.49512 3.76172C10.3233 3.76198 10.9951 4.43345 10.9951 5.26172C10.9949 6.08976 10.3232 6.76146 9.49512 6.76172C8.66685 6.76172 7.99538 6.08992 7.99512 5.26172C7.99512 4.43329 8.66669 3.76172 9.49512 3.76172Z" fill="#3C3B44"/>
<path fill-rule="evenodd" clip-rule="evenodd" d="M18.8232 1C19.9186 1.00002 20.9524 1.43123 21.7305 2.19727C22.5391 2.99912 22.9999 4.11186 23 5.26074C23 6.40981 22.5392 7.53521 21.7305 8.3252C21.6209 8.43476 21.5059 8.53765 21.3867 8.63281C21.5058 8.72706 21.621 8.82776 21.7305 8.93555C22.5392 9.73747 23 10.851 23 12C23 13.1491 22.5392 14.2745 21.7305 15.0645C20.9525 15.8424 19.9186 16.2617 18.8232 16.2617H12.8037V21.2051H18.2334L18.3115 21.21C18.6962 21.2619 19.0029 21.6927 19.0029 22.2051C19.0029 22.7516 18.6538 23.205 18.2334 23.2051H5.77148C5.35111 23.205 5.003 22.7516 5.00293 22.2051C5.00293 21.6584 5.35107 21.2051 5.77148 21.2051H11.2686V16.2617H5.17676C4.08143 16.2617 3.04754 15.8304 2.26953 15.0645C1.46078 14.2625 1 13.1491 1 12C1.00004 10.851 1.46082 9.7255 2.26953 8.93555C2.37997 8.82657 2.49503 8.7246 2.61426 8.62988C2.49457 8.53524 2.37954 8.4335 2.26953 8.3252C1.4608 7.52324 1 6.40981 1 5.26074C1.00011 4.11186 1.46094 2.98716 2.26953 2.19727C3.05779 1.41926 4.08139 1.00002 5.17676 1H18.8232ZM5.16699 9.52246C4.45038 9.52246 3.74334 9.81003 3.25195 10.3008C2.78125 10.7675 2.52543 11.3658 2.52539 12C2.52539 12.6344 2.78104 13.2334 3.25195 13.7002C3.75358 14.1909 4.4504 14.4775 5.16699 14.4775H11.9131C11.9531 14.4698 11.9944 14.4658 12.0361 14.4658C12.0778 14.4658 12.1192 14.4698 12.1592 14.4775H18.8125C19.5291 14.4775 20.2361 14.1909 20.7275 13.7002C21.1985 13.2334 21.4541 12.6344 21.4541 12C21.4541 11.3658 21.1983 10.7675 20.7275 10.3008C20.2259 9.81003 19.5291 9.52246 18.8125 9.52246H5.16699ZM5.16699 2.7832C4.45038 2.7832 3.74334 3.07077 3.25195 3.56152C2.78123 4.02821 2.5255 4.62658 2.52539 5.26074C2.52539 5.89509 2.78108 6.49414 3.25195 6.96094C3.75358 7.45169 4.45038 7.73926 5.16699 7.73926H18.8125C19.5291 7.73926 20.2361 7.45169 20.7275 6.96094C21.1984 6.49413 21.4541 5.8951 21.4541 5.26074C21.454 4.62657 21.1983 4.02821 20.7275 3.56152C20.2259 3.07077 19.5291 2.7832 18.8125 2.7832H5.16699Z" fill="#3C3B44"/>
</g>
<defs>
<clipPath id="clip0_4787_556">
<rect width="24" height="24" fill="white"/>
</clipPath>
</defs>
</svg>

<svg xmlns="http://www.w3.org/2000/svg" width="24" height="24" fill="none" viewBox="0 0 24 24"><g fill="currentColor" clip-path="url(#a)"><path d="M5.497 10.5a1.5 1.5 0 1 1-.001 3.001 1.5 1.5 0 0 1 .001-3.001m3.998 0a1.5 1.5 0 1 1-.001 3.001 1.5 1.5 0 0 1 .001-3.001M5.497 3.762a1.5 1.5 0 1 1 0 3 1.5 1.5 0 0 1 0-3m3.998 0a1.5 1.5 0 1 1 0 3 1.5 1.5 0 0 1 0-3"/><path fill-rule="evenodd" d="M18.823 1a4.13 4.13 0 0 1 2.907 1.197A4.33 4.33 0 0 1 23 5.261c0 1.149-.46 2.274-1.27 3.064q-.165.165-.343.308.179.141.343.303A4.33 4.33 0 0 1 23 12c0 1.15-.46 2.274-1.27 3.065a4.08 4.08 0 0 1-2.907 1.197h-6.02v4.943h5.43l.078.005c.385.052.692.483.692.995 0 .547-.35 1-.77 1H5.771c-.42 0-.768-.453-.768-1s.348-1 .768-1h5.498v-4.943H5.177a4.13 4.13 0 0 1-2.907-1.197A4.33 4.33 0 0 1 1 12c0-1.149.46-2.274 1.27-3.064q.165-.164.344-.306a4 4 0 0 1-.344-.305A4.33 4.33 0 0 1 1 5.261a4.3 4.3 0 0 1 1.27-3.064A4.1 4.1 0 0 1 5.177 1zM5.167 9.522a2.74 2.74 0 0 0-1.915.779A2.38 2.38 0 0 0 2.525 12c0 .634.256 1.233.727 1.7a2.76 2.76 0 0 0 1.915.777h6.746a.7.7 0 0 1 .246 0h6.653a2.74 2.74 0 0 0 1.915-.777 2.38 2.38 0 0 0 .727-1.7 2.38 2.38 0 0 0-.727-1.7 2.76 2.76 0 0 0-1.915-.778zm0-6.739a2.74 2.74 0 0 0-1.915.779 2.38 2.38 0 0 0-.727 1.699c0 .634.256 1.233.727 1.7a2.76 2.76 0 0 0 1.915.778h13.646c.716 0 1.423-.287 1.915-.778.47-.467.726-1.066.726-1.7s-.256-1.233-.727-1.7a2.76 2.76 0 0 0-1.915-.778z" clip-rule="evenodd"/></g><defs><clipPath id="a"><path fill="currentColor" d="M0 0h24v24H0z"/></clipPath></defs></svg>
